products/org.csstudio.iter.css.product/SymbolLibrary_quad_hd/SVG/Electrical/Converters/EG Bypass.svg

<?xml version="1.0" encoding="UTF-8" standalone="no"?>
<!--
/*******************************************************************************
* Copyright (c) 2010-2016 ITER Organization.
* All rights reserved. This program and the accompanying materials
* are made available under the terms of the Eclipse Public License v1.0
* which accompanies this distribution, and is available at
* http://www.eclipse.org/legal/epl-v10.html
******************************************************************************/
-->
<!--
/*******************************************************************************
* Copyright (c) 2010-2016 ITER Organization.
* All rights reserved. This program and the accompanying materials
* are made available under the terms of the Eclipse Public License v1.0
* which accompanies this distribution, and is available at
* http://www.eclipse.org/legal/epl-v10.html
******************************************************************************/
-->

<svg
   xmlns:dc="http://purl.org/dc/elements/1.1/"
   xmlns:cc="http://creativecommons.org/ns#"
   xmlns:rdf="http://www.w3.org/1999/02/22-rdf-syntax-ns#"
   xmlns:svg="http://www.w3.org/2000/svg"
   xmlns="http://www.w3.org/2000/svg"
   xmlns:sodipodi="http://sodipodi.sourceforge.net/DTD/sodipodi-0.dtd"
   xmlns:inkscape="http://www.inkscape.org/namespaces/inkscape"
   width="260pt"
   height="354pt"
   viewBox="0 0 260 354"
   version="1.1"
   id="svg2"
   inkscape:version="0.91 r13725"
   sodipodi:docname="OL_EE0309.svg">
  <metadata
     id="metadata39">
    <rdf:RDF>
      <cc:Work
         rdf:about="">
        <dc:format>image/svg+xml</dc:format>
        <dc:type
           rdf:resource="http://purl.org/dc/dcmitype/StillImage" />
        <dc:title></dc:title>
      </cc:Work>
    </rdf:RDF>
  </metadata>
  <defs
     id="defs37" />
  <sodipodi:namedview
     pagecolor="#ffffff"
     bordercolor="#666666"
     borderopacity="1"
     objecttolerance="10"
     gridtolerance="10"
     guidetolerance="10"
     inkscape:pageopacity="0"
     inkscape:pageshadow="2"
     inkscape:window-width="1366"
     inkscape:window-height="706"
     id="namedview35"
     showgrid="false"
     inkscape:zoom="0.53333333"
     inkscape:cx="162.5"
     inkscape:cy="221.25"
     inkscape:window-x="-8"
     inkscape:window-y="-8"
     inkscape:window-maximized="1"
     inkscape:current-layer="svg2" />
  <g
     id="surface1"
     transform="matrix(0.96711626,0,0,0.94410456,4.5808589,9.6408558)"
     style="stroke-width:1.97689029;stroke-miterlimit:3;stroke-dasharray:none">
    <path
       style="fill:#ffffff;fill-opacity:1;fill-rule:evenodd;stroke:#000000;stroke-width:1.05332881;stroke-linecap:round;stroke-linejoin:round;stroke-miterlimit:3;stroke-opacity:1;stroke-dasharray:none"
       d="m 1.05117e-4,1.999998 136.063064883,0 0,187.085732 -136.063064883,0 z"
       transform="matrix(1.87861,0,0,1.874997,1.878709,-1.874989)"
       id="path5"
       inkscape:connector-curvature="0" />
    <path
       style="fill:none;stroke:#000000;stroke-width:1.05332881;stroke-linecap:round;stroke-linejoin:round;stroke-miterlimit:3;stroke-dasharray:none;stroke-opacity:1"
       d="m 8.500017,121.06047 8.5107,17.00003 0,34.01881 -17.011002649,0 0,17.01044 34.019925649,0 0,-17.01044 -17.008923,0"
       transform="matrix(1.87861,0,0,1.874997,113.69975,-145.37863)"
       id="path7"
       inkscape:connector-curvature="0" />
    <path
       style="fill:none;stroke:#000000;stroke-width:4.01480543;stroke-linecap:butt;stroke-linejoin:miter;stroke-miterlimit:3;stroke-opacity:1;stroke-dasharray:none"
       d="m 6.32625e-4,189.09032 110.549677375,0"
       transform="matrix(1.87861,0,0,1.874997,17.85428,-113.48906)"
       id="path9"
       inkscape:connector-curvature="0" />
    <path
       style="fill:none;stroke:#000000;stroke-width:1.05332881;stroke-linecap:round;stroke-linejoin:round;stroke-miterlimit:3;stroke-opacity:1;stroke-dasharray:none"
       d="m 4.539811,172.07987 0,17.01045 -4.539178375,0"
       transform="matrix(1.87861,0,0,1.874997,17.85428,-113.48906)"
       id="path11"
       inkscape:connector-curvature="0" />
    <path
       style="fill:none;stroke:#000000;stroke-width:1.05332881;stroke-linecap:round;stroke-linejoin:round;stroke-miterlimit:3;stroke-opacity:1;stroke-dasharray:none"
       d="m -9.25198e-4,189.09032 17.011002198,0 0,-17.01045"
       transform="matrix(1.87861,0,0,1.874997,33.829863,-113.48906)"
       id="path13"
       inkscape:connector-curvature="0" />
    <path
       style="fill:none;stroke:#000000;stroke-width:1.05332881;stroke-linecap:round;stroke-linejoin:round;stroke-miterlimit:3;stroke-opacity:1;stroke-dasharray:none"
       d="m -2.42488e-4,189.09032 17.011002488,0 0,-17.01045"
       transform="matrix(1.87861,0,0,1.874997,74.301237,-113.48906)"
       id="path15"
       inkscape:connector-curvature="0" />
    <path
       style="fill:none;stroke:#000000;stroke-width:1.05332881;stroke-linecap:round;stroke-linejoin:round;stroke-miterlimit:3;stroke-opacity:1;stroke-dasharray:none"
       d="m 6.66027e-4,172.07987 0,17.01045 9.070038973,0"
       transform="matrix(1.87861,0,0,1.874997,145.6589,-113.48906)"
       id="path17"
       inkscape:connector-curvature="0" />
    <path
       style="fill:none;stroke:#000000;stroke-width:1.05332881;stroke-linecap:round;stroke-linejoin:round;stroke-miterlimit:3;stroke-opacity:1;stroke-dasharray:none"
       d="m 8.499946,189.09078 0,-17.01045 -8.500302988,0"
       transform="matrix(1.87861,0,0,1.874997,113.7077,-81.599299)"
       id="path19"
       inkscape:connector-curvature="0" />
    <path
       style="fill:none;stroke:#000000;stroke-width:1.05332881;stroke-linecap:round;stroke-linejoin:round;stroke-miterlimit:3;stroke-opacity:1;stroke-dasharray:none"
       d="m -9.24642e-4,87.040607 0,-17.010445 51.020530642,0 0,119.060618"
       transform="matrix(1.87861,0,0,1.874997,145.6658,-81.599299)"
       id="path21"
       inkscape:connector-curvature="0" />
    <path
       style="fill:#ffffff;fill-opacity:1;fill-rule:evenodd;stroke:#000000;stroke-width:1.05332881;stroke-linecap:round;stroke-linejoin:round;stroke-miterlimit:3;stroke-opacity:1;stroke-dasharray:none"
       d="m 8.500401,189.09041 8.50862,-8.51043 -17.0089226263,0 z"
       transform="matrix(1.87861,0,0,1.874997,177.617,-304.82517)"
       id="path23"
       inkscape:connector-curvature="0" />
    <path
       style="fill:none;stroke:#000000;stroke-width:1.05332881;stroke-linecap:round;stroke-linejoin:round;stroke-miterlimit:3;stroke-opacity:1;stroke-dasharray:none"
       d="m -4.26988e-4,155.07918 8.500302988,17.01044 0,17.00003"
       transform="matrix(1.87861,0,0,1.874997,113.70783,-17.819839)"
       id="path25"
       inkscape:connector-curvature="0" />
    <path
       style="fill:none;stroke:#000000;stroke-width:1.05332881;stroke-linecap:round;stroke-linejoin:round;stroke-miterlimit:3;stroke-opacity:1;stroke-dasharray:none"
       d="m -3.55094e-4,155.07918 8.500303094,17.01044 0,17.00003"
       transform="matrix(1.87861,0,0,1.874997,225.53582,-17.819839)"
       id="path27"
       inkscape:connector-curvature="0" />
    <path
       style="fill:none;stroke:#000000;stroke-width:1.05332881;stroke-linecap:round;stroke-linejoin:round;stroke-miterlimit:3;stroke-opacity:1;stroke-dasharray:none"
       d="m -1.41414e-5,189.08965 59.5291511414,0"
       transform="matrix(1.87861,0,0,1.874997,129.67581,-17.819839)"
       id="path29"
       inkscape:connector-curvature="0" />
    <path
       style="fill:#ffffff;fill-opacity:1;fill-rule:evenodd;stroke:#000000;stroke-width:1.97689029;stroke-linecap:round;stroke-linejoin:round;stroke-miterlimit:3;stroke-opacity:1;stroke-dasharray:none"
       d="m 18.046128,18.006731 77.480064,0 0,76.111117 -77.480064,0 z"
       id="path31"
       inkscape:connector-curvature="0" />
    <path
       style="fill:#ffffff;fill-opacity:1;fill-rule:evenodd;stroke:#000000;stroke-width:0.86443165;stroke-linecap:round;stroke-linejoin:round;stroke-miterlimit:3;stroke-opacity:1;stroke-dasharray:none"
       d="m 40.471754,54.989138 16.757825,-21.093793 18.423776,0 -20.962653,16.458713 16.788563,0 -33.552538,26.352833 17.618464,-21.717753 z"
       id="path33"
       inkscape:connector-curvature="0" />
  </g>
</svg>

<?xml version="1.0" encoding="UTF-8"?>
<!--
/*******************************************************************************
* Copyright (c) 2010-2016 ITER Organization.
* All rights reserved. This program and the accompanying materials
* are made available under the terms of the Eclipse Public License v1.0
* which accompanies this distribution, and is available at
* http://www.eclipse.org/legal/epl-v10.html
******************************************************************************/
-->
<svg xmlns="http://www.w3.org/2000/svg" xmlns:xlink="http://www.w3.org/1999/xlink" width="260pt" height="354pt" viewBox="0 0 260 354" version="1.1">
<g id="surface1">
<path style="fill-rule:evenodd;fill:rgb(100%,100%,100%);fill-opacity:1;stroke-width:0.999996;stroke-linecap:round;stroke-linejoin:round;stroke:rgb(0%,0%,0%);stroke-opacity:1;stroke-miterlimit:3;" d="M 0.000105117 1.999998 L 136.063172 1.999998 L 136.063172 189.085731 L 0.000105117 189.085731 Z " transform="matrix(1.87861,0,0,1.874997,1.878709,-1.874989)"/>
<path style="fill:none;stroke-width:0.999996;stroke-linecap:round;stroke-linejoin:round;stroke:rgb(0%,0%,0%);stroke-opacity:1;stroke-miterlimit:3;" d="M 8.500017 121.060474 L 17.010717 138.060502 L 17.010717 172.07931 L -0.000285649 172.07931 L -0.000285649 189.089755 L 34.01964 189.089755 L 34.01964 172.07931 L 17.010717 172.07931 " transform="matrix(1.87861,0,0,1.874997,113.699755,-145.378629)"/>
<path style="fill:none;stroke-width:4;stroke-linecap:butt;stroke-linejoin:miter;stroke:rgb(0%,0%,0%);stroke-opacity:1;stroke-miterlimit:3;" d="M 0.000632625 189.090318 L 110.550315 189.090318 " transform="matrix(1.87861,0,0,1.874997,17.85428,-113.489058)"/>
<path style="fill:none;stroke-width:1;stroke-linecap:round;stroke-linejoin:round;stroke:rgb(0%,0%,0%);stroke-opacity:1;stroke-miterlimit:3;" d="M 4.539811 172.079872 L 4.539811 189.090318 L 0.000632625 189.090318 " transform="matrix(1.87861,0,0,1.874997,17.85428,-113.489058)"/>
<path style="fill:none;stroke-width:1;stroke-linecap:round;stroke-linejoin:round;stroke:rgb(0%,0%,0%);stroke-opacity:1;stroke-miterlimit:3;" d="M -0.000925198 189.090318 L 17.010077 189.090318 L 17.010077 172.079872 " transform="matrix(1.87861,0,0,1.874997,33.829863,-113.489058)"/>
<path style="fill:none;stroke-width:1;stroke-linecap:round;stroke-linejoin:round;stroke:rgb(0%,0%,0%);stroke-opacity:1;stroke-miterlimit:3;" d="M -0.000242488 189.090318 L 17.01076 189.090318 L 17.01076 172.079872 " transform="matrix(1.87861,0,0,1.874997,74.301237,-113.489058)"/>
<path style="fill:none;stroke-width:1;stroke-linecap:round;stroke-linejoin:round;stroke:rgb(0%,0%,0%);stroke-opacity:1;stroke-miterlimit:3;" d="M 0.000666027 172.079872 L 0.000666027 189.090318 L 9.070705 189.090318 " transform="matrix(1.87861,0,0,1.874997,145.658905,-113.489058)"/>
<path style="fill:none;stroke-width:1;stroke-linecap:round;stroke-linejoin:round;stroke:rgb(0%,0%,0%);stroke-opacity:1;stroke-miterlimit:3;" d="M 8.499946 189.09078 L 8.499946 172.080334 L -0.000356988 172.080334 " transform="matrix(1.87861,0,0,1.874997,113.707702,-81.599299)"/>
<path style="fill:none;stroke-width:0.999996;stroke-linecap:round;stroke-linejoin:round;stroke:rgb(0%,0%,0%);stroke-opacity:1;stroke-miterlimit:3;" d="M -0.000924642 87.040607 L -0.000924642 70.030162 L 51.019606 70.030162 L 51.019606 189.09078 " transform="matrix(1.87861,0,0,1.874997,145.6658,-81.599299)"/>
<path style="fill-rule:evenodd;fill:rgb(100%,100%,100%);fill-opacity:1;stroke-width:0.999996;stroke-linecap:round;stroke-linejoin:round;stroke:rgb(0%,0%,0%);stroke-opacity:1;stroke-miterlimit:3;" d="M 8.500401 189.090412 L 17.009021 180.57998 L 0.0000983737 180.57998 Z " transform="matrix(1.87861,0,0,1.874997,177.617003,-304.825172)"/>
<path style="fill:none;stroke-width:0.999993;stroke-linecap:round;stroke-linejoin:round;stroke:rgb(0%,0%,0%);stroke-opacity:1;stroke-miterlimit:3;" d="M -0.000426988 155.079176 L 8.499876 172.089622 L 8.499876 189.089651 " transform="matrix(1.87861,0,0,1.874997,113.707833,-17.819839)"/>
<path style="fill:none;stroke-width:0.999993;stroke-linecap:round;stroke-linejoin:round;stroke:rgb(0%,0%,0%);stroke-opacity:1;stroke-miterlimit:3;" d="M -0.000355094 155.079176 L 8.499948 172.089622 L 8.499948 189.089651 " transform="matrix(1.87861,0,0,1.874997,225.535823,-17.819839)"/>
<path style="fill:none;stroke-width:0.999993;stroke-linecap:round;stroke-linejoin:round;stroke:rgb(0%,0%,0%);stroke-opacity:1;stroke-miterlimit:3;" d="M -0.0000141414 189.089651 L 59.529137 189.089651 " transform="matrix(1.87861,0,0,1.874997,129.675808,-17.819839)"/>
<path style="fill-rule:evenodd;fill:rgb(100%,100%,100%);fill-opacity:1;stroke-width:0.999993;stroke-linecap:round;stroke-linejoin:round;stroke:rgb(0%,0%,0%);stroke-opacity:1;stroke-miterlimit:3;" d="M 0.000452625 155.069099 L 34.016219 155.069099 L 34.016219 189.085824 L 0.000452625 189.085824 Z " transform="matrix(1.87861,0,0,1.874997,17.854618,-272.937663)"/>
<path style="fill-rule:evenodd;fill:rgb(100%,100%,100%);fill-opacity:1;stroke-width:0.239998;stroke-linecap:round;stroke-linejoin:round;stroke:rgb(0%,0%,0%);stroke-opacity:1;stroke-miterlimit:3;" d="M 0.860933 180.460901 L 6.529187 172.079637 L 12.760941 172.079637 L 5.670424 178.619232 L 11.349075 178.619232 L 0.0000898446 189.090083 L 5.959451 180.460901 Z " transform="matrix(1.87861,0,0,1.874997,37.82405,-288.855805)"/>
</g>
</svg>
